X:1
T:Anfänglich nicht vergebens
T:André Vierendeels
T:Melody by Georg Vogler (1625) (Soprano voice)
T:Source : Catechismus---Würzburg---J.Volmari---1652. Editor : André Vierendeels (12/10/17).
T:Notes : Original clef : C1, other voices supplied editorially Original note values have been halved Text Middle German
T:Anfänglich nicht vergebens
T:©
T:©
T:©
C:André Vierendeels
Z:©
%%score [ 1 2 3 ]
L:1/8
Q:1/4=120
M:2/2
K:C
V:1 treble nm="Soprano" snm="S"
V:2 treble-8 nm="Tenor" snm="T"
V:3 bass nm="Bass" snm="B"
V:1
"^1)" D4 D2 E2 | F2 G2 A4 | D4 A4 | c2 A2 _B2 A2 | G4 F4 | C4 D2 F2 | E2 D2 A4 | A4 G2 ^F2 | %8
w: An- fäng- lich|nicht ver- ge-|bens, pflantzt|Gott den Baum des|Le- bens,|mit- ten ins|Pa- ra- deysz,|zur Speisz und|
w: Hei- lig ist|die- se Leh-|re: Ca-|tho- lisch bisz hie-|he- re.|Der Stul Pe-|tri sie fund:|zu Rom hält|
 G2 E2 !fermata!D4 | D4 D2 E2 | F2 G2 A4 | D4 A4 | c2 A2 _B2 A2 | G4 F4 | C4 D2 F2 | E2 D2 A4 | %16
w: Un- der- weisz,|Ve- dent den|Baum desz Le-|bens, den|Gott der Kir- chen|ge- ben,|in Chris- te-|li- cher Lehr,|
w: auff die Stund,|viel tau- send|Mar- tyr' ley-|den, sol-|che Lehr zu- be-|zeu- gen,|streckt dar Leib,|Gut, und Blut,|
 A4 G2 ^F2 | G2 E2 !fermata!D4 |: d4 d2 ^c2 | d2 A2 c2 B2 | A4 A2 c2 | B2 A2 A2 G2 | G4 F4 | %23
w: im Glau- ben|wurtz- le- ter:|sein Stamm die|Hoff- nung wird ge-|nennt: die Näst,|Lieb: Safft, die Sa-|cra- ment:|
w: mit frew- di-|gem Held' Muth,|viel Wun- der-|werck der Vat- ter|Schall: die Nach-|kunsst al- ler Hir-|ten wall:|
 E4 F2 G2 | A2 F2 G2 E2 | D8 :| %26
w: Frucht bringt Ge-|rech- tig- keit be-|hend.|
w: sterckt mich in|die- sen Stüc- ken|all.|
V:2
"^2)""^1)" A4 F2 G2 | A2 E2 E4 | A4 c4 | e2 d2 d2 c2 | e4 d4 | G4 F2 A2 | G2 A2 c4 | e4 e2 d2 | %8
w: An- fäng- lich|nicht ver- ge-|bens, pflantzt|Gott den Baum des|Le- bens,|mi- tens ins|Pa- ra- deysz,|zur Speisz und|
w: Der wurtz- let|so ge- taufft|ist, wah-|ren Gott und Men-|schen Je-|sum Christ, in|sein'r Kirch be-|kennt, sein heilg'|
 e2 c2 !fermata!A4 | F4 G2 G2 | F2 c2 c4 | A4 e4 | e2 f2 d2 c2 | e4 d4 | e4 B2 A2 | G2 A2 e4 | %16
w: Un- der- weisz,|Ve- dent den|Baum desz Le-|bens, den|Gott der Kir- chen|ge- ben,|in Chris- te-|li- cher Lehr,|
w: Lehr nicht trennt,|von Irz- thumb|nicht be- tro-|gen, in|Sec- ten nicht ge-|zo- gen,|so füh- ren|mit Irz- saal,|
 c4 G2 A2 | e2 c2 !fermata!A4 |: f4 d2 e2 | d2 c2 g2 d2 | c4 e2 e2 | d2 f2 d2 B2 | e4 c4 | %23
w: im Glau- ben|wurtz- le- ter:|sein Stamm die|Hoff- nung wird ge-|nennt: die Näst,|Lieb: Safft, die Sa-|cra- ment:|
w: ins e- wig|Jam- mer- thal,|ein rech- ter|Christ der ist al-|lein, so kan|von al- len Sün-|den rein|
 G4 A2 B2 | e2 d2 B2 A2 | ^F8 :| %26
w: Frucht bringt Ge-|rech- tig- keit be-|hend.|
w: ent- g'hen der|Höll mit ih- rer|Peyn.|
V:3
"^3)""^1)""^4)" D,4 D,2 C,2 | D,2 C,2 A,,4 | D,4 A,,4 | C,2 F,,2 G,,2 A,,2 | C,4 D,4 | %5
w: An- fäng- lich|nicht ver- ge-|bens, pflantzt|Gott den Baum des|Le- bens,|
w: Ich glaub O|Gott, ich glau-|be, den|Glau- ben nichts mit|rau- be:|
 C,4 A,,2 F,,2 | C,2 D,2 A,,4 | A,,4 C,2 D,2 | C,2 C,2 !fermata!D,4 | D,4 G,,2 C,2 | D,2 C,2 A,,4 | %11
w: mi- tens ins|Pa- ra- deysz,|zur Speisz und|Un- ter- weisz,|Ve- dent den|Baum desz Le-|
w: be- kenn ihn|sein gut rund,|mit Her- tzen|und mit Mund,|Stär- cker und|mehr zu gla-|
 D,4 A,,4 | C,2 F,,2 G,,2 A,,2 | C,4 D,4 | C,4 G,,2 F,,2 | C,2 D,2 A,,4 | A,,4 C,2 D,2 | %17
w: bens, den|Gott der Kir- chen|ge- ben,|in Chris- te-|li- cher Lehr,|im Glau- ben|
w: ben, er-|leucht desz Her- tzens|Au- gen,|Je- su wir|bit- ten dich,|er- halt uns|
 C,2 C,2 !fermata!D,4 |: D,4 D,2 A,,2 | G,,2 A,,2 C,2 G,,2 | A,,4 A,,2 A,,2 | G,,2 D,2 D,2 G,,2 | %22
w: wurtzt- le- ter:|sein Stamm die|Hoff- nung wird ge-|nennt: die Näst,|Lieb: Safft, die Sa-|
w: Vät- ter- lich,|er- hält Ma-|ri- a gnä- dig-|lich, sol- ches|zu glau- ben fes-|
 C,4 F,,4 | C,4 A,,2 G,,2 | A,,2 D,2 G,,2 A,,2 | D,8 :| %26
w: cra- ment:|Frucht bringt Ge-|rech- tig- keit be-|hend.|
w: tig- lich,|steh uns bey|all- zeit Müt- ter-|lich.|

